X: 787
T: Petronella
B: jims roots
M:4/4
L:1/8
R: march/country dance
Q: 1/4=100
K:Dmaj
V:1 
|:"D"F2 AF "A"E2 AF|"D"D2D2 D2 FA|"G"d2 cd "E"e2d2|"A"cdec A2 dA |
"D"F2 AF "A"E2 AF|"D"D2D2 D2 FA|"G"d2 cd "A"e2c2|"D"d4 d2 dA:|
|:"D"F2 fd A2 af|"Em"g2 gf edcB|"A"A2 ec A2 ge|"D"f2 fd "A"AdAF |
"D"D2 fd A2 af|"Em"g2 gf edcB|"A"A2 ec Agec|"D"d4 d2 dA:|
% abcbook-tune_id 6298c2796e3cc4d0c7ca6c40


% abcbook-boost 0
% abcbook-tablature 
% abcbook-transpose 
% abcbook-lastupdated 1654178426470
% abcbook-soundfonts 
% abcbook-repeats 1


